packages/astro-components-stencil/src/icons/phonelink-lock.svg

<svg xmlns="http://www.w3.org/2000/svg" viewBox="0 0 24 24"><g xmlns="http://www.w3.org/2000/svg" id="phonelink-lock" fill-rule="nonzero">
            <path d="M19 1H9c-1.1 0-2 .9-2 2v2c0 .55.45 1 1 1s1-.45 1-1V4h10v16H9v-1c0-.55-.45-1-1-1s-1 .45-1 1v2c0 1.1.9 2 2 2h10c1.1 0 2-.9 2-2V3c0-1.1-.9-2-2-2zm-8.2 10V9.5C10.8 8.1 9.4 7 8 7S5.2 8.1 5.2 9.5V11c-.6 0-1.2.6-1.2 1.2v3.5c0 .7.6 1.3 1.2 1.3h5.5c.7 0 1.3-.6 1.3-1.2v-3.5c0-.7-.6-1.3-1.2-1.3zm-1.3 0h-3V9.5c0-.8.7-1.3 1.5-1.3s1.5.5 1.5 1.3V11z"/>
        </g></svg>

<svg width="24" height="24" viewBox="0 0 24 24" fill="none" xmlns="http://www.w3.org/2000/svg">
<path fill-rule="evenodd" clip-rule="evenodd" d="M19 1H9C7.9 1 7 1.9 7 3V5C7 5.55 7.45 6 8 6C8.55 6 9 5.55 9 5V4H19V20H9V19C9 18.45 8.55 18 8 18C7.45 18 7 18.45 7 19V21C7 22.1 7.9 23 9 23H19C20.1 23 21 22.1 21 21V3C21 1.9 20.1 1 19 1ZM10.8 11V9.5C10.8 8.1 9.4 7 8 7C6.6 7 5.2 8.1 5.2 9.5V11C4.6 11 4 11.6 4 12.2V15.7C4 16.4 4.6 17 5.2 17H10.7C11.4 17 12 16.4 12 15.8V12.3C12 11.6 11.4 11 10.8 11ZM6.5 11H9.5V9.5C9.5 8.7 8.8 8.2 8 8.2C7.2 8.2 6.5 8.7 6.5 9.5V11Z" fill="black"/>
</svg>
